; generated by Slic3r Prusa Edition 1.39.2+ on 2018-06-03 at 19:22:35

; 

; external perimeters extrusion width = 0.45mm
; perimeters extrusion width = 0.45mm
; infill extrusion width = 0.45mm
; solid infill extrusion width = 0.45mm
; top infill extrusion width = 0.40mm
; first layer extrusion width = 0.42mm

M107
M115 U3.2.1 ; tell printer latest fw version
M201 X1000 Y1000 Z200 E5000 ; sets maximum accelerations, mm/sec^2
M203 X200 Y200 Z12 E120 ; sets maximum feedrates, mm/sec
M204 S1250 T1250 ; sets acceleration (S) and retract acceleration (T)
M205 X10 Y10 Z0.4 E2.5 ; sets the jerk limits, mm/sec
M205 S0 T0 ; sets the minimum extruding and travel feed rate, mm/sec
M83  ; extruder relative mode
M104 S215 ; set extruder temp
M140 S60 ; set bed temp
M190 S60 ; wait for bed temp
M109 S215 ; wait for extruder temp
G28 W ; home all without mesh bed level
G80 ; mesh bed leveling
G1 Y-3.0 F1000.0 ; go outside print area
G92 E0.0
G1 X60.0 E9.0  F1000.0 ; intro line
G1 X100.0 E12.5  F1000.0 ; intro line
G92 E0.0
M221 S95
M900 K30; Filament gcode
G21 ; set units to millimeters
G90 ; use absolute coordinates
M83 ; use relative distances for extrusion
;BEFORE_LAYER_CHANGE
;0.2


G1 E-0.80000 F2100.00000
G1 Z0.600 F10200.000
;AFTER_LAYER_CHANGE
;0.2
G1 X76.099 Y88.826
G1 Z0.200
G1 E0.80000 F2100.00000
M204 S1000
G1 F1800
G1 X77.183 Y88.118 E0.04061
G1 X78.022 Y87.814 E0.02796
G1 X78.972 Y87.696 E0.03001
G1 X167.045 Y87.690 E2.76149
G1 X175.471 Y87.743 E0.26418
G1 X176.161 Y87.999 E0.02308
G1 X176.742 Y88.456 E0.02319
G1 X177.154 Y89.066 E0.02308
G1 X177.358 Y89.773 E0.02308
G1 X177.377 Y159.958 E2.20058
G1 X177.313 Y160.475 E0.01633
G1 X177.137 Y160.969 E0.01645
G1 X176.859 Y161.409 E0.01633
G1 X176.489 Y161.781 E0.01645
G1 X175.797 Y162.167 E0.02484
G1 X175.013 Y162.304 E0.02496
G1 X78.961 Y162.304 E3.01163
G1 X77.934 Y162.162 E0.03249
G1 X77.301 Y161.949 E0.02095
G1 X76.332 Y161.375 E0.03531
G1 X75.826 Y160.901 E0.02174
G1 X75.118 Y159.817 E0.04061
G1 X74.815 Y158.982 E0.02784
G1 X74.696 Y158.040 E0.02977
G1 X74.696 Y91.971 E2.07154
G1 X74.837 Y90.938 E0.03269
G1 X75.049 Y90.305 E0.02095
G1 X75.625 Y89.332 E0.03543
G1 X76.058 Y88.870 E0.01986
G1 F8160
G1 X77.183 Y88.118 E-0.33092
G1 X78.022 Y87.814 E-0.21804
G1 X78.878 Y87.707 E-0.21104
G1 E-0.04000 F2100.00000
G1 Z0.800 F10200.000
G1 X167.115 Y97.984
G1 Z0.200
G1 E0.80000 F2100.00000
G1 F1800
G1 X166.817 Y97.861 E0.01011
G1 X166.387 Y97.597 E0.01580
G1 X166.004 Y97.270 E0.01580
G1 X165.677 Y96.887 E0.01580
G1 X165.414 Y96.458 E0.01580
G1 X165.221 Y95.992 E0.01580
G1 X165.114 Y95.549 E0.01427
G1 X165.064 Y95.001 E0.01726
G1 X165.103 Y94.498 E0.01584
G1 X165.221 Y94.008 E0.01580
G1 X165.395 Y93.587 E0.01427
G1 X165.676 Y93.114 E0.01726
G1 X166.004 Y92.730 E0.01584
G1 X166.387 Y92.403 E0.01580
G1 X166.817 Y92.139 E0.01580
G1 X167.282 Y91.946 E0.01580
G1 X167.772 Y91.829 E0.01580
G1 X168.226 Y91.793 E0.01427
G1 X168.775 Y91.829 E0.01726
G1 X169.266 Y91.946 E0.01584
G1 X169.732 Y92.139 E0.01580
G1 X170.161 Y92.403 E0.01580
G1 X170.545 Y92.730 E0.01580
G1 X170.872 Y93.113 E0.01580
G1 X171.110 Y93.501 E0.01427
G1 X171.327 Y94.006 E0.01726
G1 X171.445 Y94.498 E0.01584
G1 X171.485 Y95.000 E0.01580
G1 X171.445 Y95.502 E0.01580
G1 X171.328 Y95.992 E0.01580
G1 X171.135 Y96.458 E0.01580
G1 X170.872 Y96.887 E0.01580
G1 X170.545 Y97.270 E0.01580
G1 X170.161 Y97.597 E0.01580
G1 X169.732 Y97.861 E0.01580
G1 X169.266 Y98.054 E0.01580
G1 X168.777 Y98.171 E0.01580
G1 X168.274 Y98.211 E0.01580
G1 X168.043 Y98.192 E0.00727
G1 X168.685 Y98.416 E0.02130
G1 X169.335 Y98.721 E0.02252
G1 X169.966 Y99.099 E0.02308
G1 X170.555 Y99.541 E0.02309
G1 X171.095 Y100.041 E0.02308
G1 X171.570 Y100.581 E0.02252
G1 X171.997 Y101.180 E0.02308
G1 X172.360 Y101.820 E0.02309
G1 X172.654 Y102.495 E0.02309
G1 X172.878 Y103.197 E0.02308
G1 X173.024 Y103.900 E0.02252
G1 X173.101 Y104.632 E0.02308
G1 X173.101 Y105.368 E0.02309
G1 X173.024 Y106.100 E0.02308
G1 X172.878 Y106.803 E0.02252
G1 X172.654 Y107.505 E0.02308
G1 X172.360 Y108.180 E0.02309
G1 X171.997 Y108.820 E0.02309
G1 X171.570 Y109.419 E0.02308
G1 X171.095 Y109.959 E0.02252
G1 X170.555 Y110.459 E0.02308
G1 X169.966 Y110.901 E0.02309
G1 X169.335 Y111.279 E0.02308
G1 X168.684 Y111.584 E0.02253
G1 X168.039 Y111.807 E0.02143
G1 X168.226 Y111.793 E0.00589
G1 X168.775 Y111.828 E0.01726
G1 X169.266 Y111.946 E0.01584
G1 X169.732 Y112.139 E0.01580
G1 X170.161 Y112.402 E0.01580
G1 X170.545 Y112.729 E0.01580
G1 X170.872 Y113.112 E0.01580
G1 X171.110 Y113.500 E0.01427
G1 X171.327 Y114.006 E0.01726
G1 X171.445 Y114.497 E0.01584
G1 X171.485 Y114.999 E0.01580
G1 X171.445 Y115.502 E0.01580
G1 X171.328 Y115.992 E0.01580
G1 X171.135 Y116.457 E0.01580
G1 X170.872 Y116.887 E0.01580
G1 X170.545 Y117.270 E0.01580
G1 X170.161 Y117.597 E0.01580
G1 X169.732 Y117.860 E0.01580
G1 X169.266 Y118.053 E0.01580
G1 X168.777 Y118.171 E0.01580
G1 X168.274 Y118.210 E0.01580
G1 X167.772 Y118.171 E0.01580
G1 X167.282 Y118.053 E0.01580
G1 X166.817 Y117.860 E0.01580
G1 X166.387 Y117.597 E0.01580
G1 X166.004 Y117.270 E0.01580
G1 X165.677 Y116.887 E0.01580
G1 X165.414 Y116.457 E0.01580
G1 X165.221 Y115.992 E0.01580
G1 X165.114 Y115.549 E0.01427
G1 X165.064 Y115.001 E0.01726
G1 X165.103 Y114.497 E0.01584
G1 X165.221 Y114.007 E0.01580
G1 X165.395 Y113.587 E0.01427
G1 X165.676 Y113.113 E0.01726
G1 X166.004 Y112.729 E0.01584
G1 X166.387 Y112.402 E0.01580
G1 X166.817 Y112.139 E0.01580
G1 X167.113 Y112.016 E0.01006
G1 X166.543 Y112.089 E0.01803
G1 X165.825 Y112.108 E0.02252
G1 X165.091 Y112.052 E0.02308
G1 X164.367 Y111.920 E0.02309
G1 X163.660 Y111.714 E0.02309
G1 X162.978 Y111.436 E0.02308
G1 X162.344 Y111.098 E0.02252
G1 X161.733 Y110.688 E0.02308
G1 X161.182 Y110.228 E0.02252
G1 X160.655 Y109.689 E0.02364
G1 X160.209 Y109.125 E0.02253
G1 X159.805 Y108.488 E0.02364
G1 X159.484 Y107.846 E0.02252
G1 X159.225 Y107.157 E0.02308
G1 X159.042 Y106.462 E0.02252
G1 X158.927 Y105.717 E0.02364
G1 X158.890 Y105.000 E0.02252
G1 X158.928 Y104.265 E0.02308
G1 X159.042 Y103.538 E0.02308
G1 X159.225 Y102.843 E0.02252
G1 X159.484 Y102.154 E0.02308
G1 X159.813 Y101.495 E0.02309
G1 X160.209 Y100.875 E0.02308
G1 X160.655 Y100.312 E0.02252
G1 X161.168 Y99.784 E0.02308
G1 X161.733 Y99.312 E0.02309
G1 X162.344 Y98.902 E0.02308
G1 X162.978 Y98.564 E0.02252
G1 X163.660 Y98.286 E0.02308
G1 X164.367 Y98.080 E0.02309
G1 X165.091 Y97.948 E0.02308
G1 X165.807 Y97.893 E0.02252
G1 X166.561 Y97.912 E0.02364
G1 X167.055 Y97.976 E0.01563
G1 X166.805 Y97.893 F10200.000
G1 F8160
G1 X166.817 Y97.861 E-0.06479
G1 X166.387 Y97.597 E-0.12317
G1 X166.004 Y97.270 E-0.12317
G1 X165.677 Y96.887 E-0.12317
G1 X165.414 Y96.458 E-0.12317
G1 X165.221 Y95.992 E-0.12317
G1 X165.145 Y95.677 E-0.07934
G1 E-0.04000 F2100.00000
G1 Z0.800 F10200.000
G1 X165.722 Y97.521
G1 Z0.200
G1 E0.80000 F2100.00000
G1 F1800
G1 X165.042 Y97.574 E0.02138
G1 X164.280 Y97.712 E0.02430
G1 X163.535 Y97.929 E0.02431
G1 X162.818 Y98.222 E0.02430
G1 X162.150 Y98.578 E0.02372
G1 X161.507 Y99.010 E0.02430
G1 X160.911 Y99.507 E0.02431
G1 X160.371 Y100.062 E0.02430
G1 X159.901 Y100.656 E0.02372
G1 X159.485 Y101.309 E0.02430
G1 X159.138 Y102.003 E0.02431
G1 X158.865 Y102.728 E0.02430
G1 X158.672 Y103.460 E0.02372
G1 X158.552 Y104.226 E0.02430
G1 X158.512 Y105.000 E0.02431
G1 X158.551 Y105.756 E0.02374
G1 X158.672 Y106.539 E0.02486
G1 X158.865 Y107.272 E0.02374
G1 X159.138 Y107.997 E0.02430
G1 X159.477 Y108.674 E0.02373
G1 X159.901 Y109.344 E0.02486
G1 X160.371 Y109.938 E0.02377
G1 X160.926 Y110.505 E0.02486
G1 X161.507 Y110.990 E0.02373
G1 X162.150 Y111.422 E0.02430
G1 X162.818 Y111.778 E0.02372
G1 X163.535 Y112.071 E0.02430
G1 X164.280 Y112.288 E0.02431
G1 X165.043 Y112.426 E0.02431
G1 X165.722 Y112.478 E0.02137
G1 X165.368 Y112.893 E0.01711
G1 X165.057 Y113.418 E0.01912
G1 X164.861 Y113.890 E0.01605
G1 X164.730 Y114.438 E0.01766
G1 X164.685 Y115.004 E0.01779
G1 X164.742 Y115.611 E0.01912
G1 X164.861 Y116.109 E0.01605
G1 X165.077 Y116.629 E0.01766
G1 X165.371 Y117.109 E0.01766
G1 X165.737 Y117.537 E0.01766
G1 X166.165 Y117.903 E0.01766
G1 X166.645 Y118.197 E0.01766
G1 X166.859 Y118.286 E0.00728
G1 X158.587 Y118.267 E0.25937
G1 X158.587 Y111.264 E0.21958
G1 X151.105 Y111.287 E0.23460
G1 X139.895 Y111.287 E0.35148
G1 X132.413 Y111.264 E0.23460
G1 X132.413 Y118.266 E0.21954
G1 X132.089 Y118.266 E0.01015
G1 X131.826 Y118.184 E0.00863
G1 X131.734 Y117.996 E0.00657
G1 X131.713 Y110.829 E0.22471
G1 X131.713 Y99.171 E0.36554
G1 X131.734 Y92.090 E0.22202
G1 X131.816 Y91.826 E0.00865
G1 X132.004 Y91.734 E0.00657
G1 X132.413 Y91.734 E0.01282
G1 X132.413 Y98.736 E0.21954
G1 X139.895 Y98.713 E0.23460
G1 X151.105 Y98.713 E0.35148
G1 X158.587 Y98.736 E0.23460
G1 X158.587 Y91.733 E0.21959
G1 X166.850 Y91.717 E0.25909
G1 X166.645 Y91.802 E0.00697
G1 X166.165 Y92.097 E0.01766
G1 X165.737 Y92.462 E0.01766
G1 X165.368 Y92.894 E0.01779
G1 X165.057 Y93.418 E0.01912
G1 X164.861 Y93.891 E0.01605
G1 X164.730 Y94.439 E0.01766
G1 X164.685 Y95.004 E0.01779
G1 X164.742 Y95.611 E0.01912
G1 X164.861 Y96.109 E0.01605
G1 X165.077 Y96.629 E0.01766
G1 X165.371 Y97.109 E0.01766
G1 X165.683 Y97.475 E0.01509
G1 F8160
G1 X165.042 Y97.574 E-0.15852
G1 X164.280 Y97.712 E-0.18951
G1 X163.535 Y97.929 E-0.18959
G1 X162.818 Y98.222 E-0.18944
G1 X162.699 Y98.286 E-0.03294
G1 E-0.04000 F2100.00000
G1 Z0.800 F10200.000
G1 X169.481 Y98.373
G1 Z0.200
G1 E0.80000 F2100.00000
G1 F1800
G1 X169.904 Y98.198 E0.01433
G1 X170.384 Y97.903 E0.01766
G1 X170.812 Y97.538 E0.01766
G1 X171.178 Y97.109 E0.01766
G1 X171.472 Y96.629 E0.01766
G1 X171.688 Y96.109 E0.01766
G1 X171.819 Y95.561 E0.01766
G1 X171.863 Y95.000 E0.01766
G1 X171.819 Y94.439 E0.01766
G1 X171.687 Y93.887 E0.01779
G1 X171.445 Y93.327 E0.01912
G1 X171.178 Y92.891 E0.01605
G1 X170.812 Y92.462 E0.01766
G1 X170.384 Y92.097 E0.01766
G1 X169.904 Y91.802 E0.01766
G1 X169.713 Y91.723 E0.00648
G1 X174.413 Y91.733 E0.14737
G1 X174.413 Y118.267 E0.83196
G1 X169.706 Y118.279 E0.14757
G1 X169.904 Y118.197 E0.00669
G1 X170.384 Y117.903 E0.01766
G1 X170.812 Y117.537 E0.01766
G1 X171.178 Y117.109 E0.01766
G1 X171.472 Y116.629 E0.01766
G1 X171.688 Y116.109 E0.01766
G1 X171.819 Y115.561 E0.01766
G1 X171.863 Y114.999 E0.01766
G1 X171.819 Y114.438 E0.01766
G1 X171.687 Y113.886 E0.01779
G1 X171.445 Y113.326 E0.01912
G1 X171.178 Y112.890 E0.01605
G1 X170.812 Y112.462 E0.01766
G1 X170.384 Y112.096 E0.01766
G1 X169.904 Y111.802 E0.01766
G1 X169.482 Y111.627 E0.01431
G1 X170.177 Y111.214 E0.02535
G1 X170.797 Y110.749 E0.02431
G1 X171.366 Y110.222 E0.02430
G1 X171.865 Y109.654 E0.02372
G1 X172.315 Y109.023 E0.02429
G1 X172.698 Y108.348 E0.02431
G1 X173.008 Y107.638 E0.02431
G1 X173.243 Y106.899 E0.02430
G1 X173.398 Y106.159 E0.02372
G1 X173.478 Y105.388 E0.02430
G1 X173.478 Y104.612 E0.02431
G1 X173.398 Y103.841 E0.02430
G1 X173.243 Y103.101 E0.02372
G1 X173.008 Y102.362 E0.02430
G1 X172.698 Y101.652 E0.02431
G1 X172.315 Y100.977 E0.02431
G1 X171.865 Y100.346 E0.02429
G1 X171.366 Y99.778 E0.02372
G1 X170.797 Y99.251 E0.02430
G1 X170.177 Y98.786 E0.02431
G1 X169.534 Y98.400 E0.02349
G1 F8160
G1 X169.904 Y98.198 E-0.10299
G1 X170.384 Y97.903 E-0.13769
G1 X170.812 Y97.538 E-0.13769
G1 X171.178 Y97.109 E-0.13768
G1 X171.472 Y96.629 E-0.13768
G1 X171.638 Y96.228 E-0.10627
G1 E-0.04000 F2100.00000
G1 Z0.800 F10200.000
G1 X158.210 Y111.642
G1 Z0.200
G1 E0.80000 F2100.00000
G1 F1800
G1 X151.106 Y111.664 E0.22276
G1 X139.894 Y111.664 E0.35151
G1 X132.790 Y111.642 E0.22276
G1 X132.790 Y118.643 E0.21950
G1 X132.032 Y118.643 E0.02377
G1 X131.586 Y118.504 E0.01463
G1 X131.550 Y118.478 E0.00139
G1 X131.348 Y118.065 E0.01443
G1 X131.336 Y110.830 E0.22685
G1 X131.336 Y99.170 E0.36558
G1 X131.357 Y92.032 E0.22381
G1 X131.496 Y91.586 E0.01464
G1 X131.522 Y91.550 E0.00139
G1 X131.935 Y91.348 E0.01443
G1 X132.790 Y91.357 E0.02680
G1 X132.790 Y98.358 E0.21950
G1 X139.894 Y98.336 E0.22276
G1 X151.106 Y98.336 E0.35151
G1 X158.210 Y98.358 E0.22276
G1 X158.210 Y91.357 E0.21952
G1 X165.032 Y91.336 E0.21390
G1 X174.790 Y91.357 E0.30595
G1 X174.790 Y118.643 E0.85555
G1 X166.624 Y118.664 E0.25605
G1 X158.210 Y118.643 E0.26380
G1 X158.210 Y111.702 E0.21763
G1 X158.094 Y111.259 F10200.000
G1 F8160
G1 X155.101 Y111.685 E-0.76000
G1 E-0.04000 F2100.00000
G1 Z0.800 F10200.000
G1 X159.132 Y108.616
G1 Z0.200
G1 E0.80000 F2100.00000
G1 F1800
G1 X149.511 Y98.996 E0.42788
G1 X150.046 Y98.996 E0.01682
G1 X158.709 Y107.659 E0.38528
G1 X158.595 Y107.358 E0.01011
G1 X158.471 Y106.886 E0.01533
G1 X150.581 Y98.996 E0.35093
G1 X151.116 Y98.996 E0.01682
G1 X158.336 Y106.216 E0.32113
G1 X158.269 Y105.785 E0.01373
G1 X158.260 Y105.605 E0.00565
G1 X151.653 Y98.998 E0.29389
G1 X152.189 Y98.999 E0.01687
G1 X158.231 Y105.041 E0.26873
G1 X158.253 Y104.529 E0.01614
G1 X152.726 Y99.001 E0.24586
G1 X153.262 Y99.003 E0.01687
G1 X158.296 Y104.036 E0.22388
G1 X158.368 Y103.574 E0.01472
G1 X153.799 Y99.004 E0.20325
G1 X154.335 Y99.006 E0.01687
G1 X158.465 Y103.136 E0.18370
G1 X158.577 Y102.713 E0.01377
G1 X154.872 Y99.008 E0.16479
G1 X155.408 Y99.009 E0.01687
G1 X158.717 Y102.318 E0.14718
G1 X158.864 Y101.930 E0.01306
G1 X155.945 Y99.011 E0.12982
G1 X156.481 Y99.012 E0.01687
G1 X159.039 Y101.570 E0.11374
G1 X159.217 Y101.213 E0.01254
G1 X157.018 Y99.014 E0.09780
G1 X157.555 Y99.016 E0.01687
G1 X159.421 Y100.883 E0.08304
G1 X159.630 Y100.556 E0.01218
G1 X158.091 Y99.017 E0.06843
G1 X158.628 Y99.019 E0.01687
G1 X159.860 Y100.252 E0.05484
G1 X160.097 Y99.953 E0.01198
G1 X158.870 Y98.726 E0.05457
G1 X158.870 Y98.191 E0.01682
G1 X160.353 Y99.675 E0.06598
G1 X160.617 Y99.404 E0.01190
G1 X158.870 Y97.657 E0.07772
G1 X158.870 Y97.122 E0.01682
G1 X160.898 Y99.150 E0.09021
G1 X161.190 Y98.906 E0.01194
G1 X158.870 Y96.587 E0.10318
G1 X158.870 Y96.052 E0.01682
G1 X161.495 Y98.677 E0.11677
G1 X161.815 Y98.462 E0.01212
G1 X158.870 Y95.517 E0.13100
G1 X158.870 Y94.982 E0.01682
G1 X162.147 Y98.259 E0.14576
G1 X162.496 Y98.073 E0.01244
G1 X158.870 Y94.447 E0.16128
G1 X158.870 Y93.912 E0.01682
G1 X162.858 Y97.900 E0.17739
G1 X163.238 Y97.745 E0.01290
G1 X158.870 Y93.377 E0.19428
G1 X158.870 Y92.842 E0.01682
G1 X163.634 Y97.606 E0.21189
G1 X164.048 Y97.485 E0.01357
G1 X158.870 Y92.307 E0.23031
G1 X158.870 Y92.015 E0.00920
G1 X159.112 Y92.014 E0.00761
G1 X164.485 Y97.388 E0.23899
G1 X164.938 Y97.305 E0.01447
G1 X159.646 Y92.013 E0.23538
G1 X160.180 Y92.012 E0.01679
G1 X164.752 Y96.585 E0.20338
G1 X164.591 Y96.197 E0.01322
G1 X164.494 Y95.792 E0.01309
G1 X160.713 Y92.011 E0.16816
G1 X161.247 Y92.010 E0.01679
G1 X164.417 Y95.180 E0.14100
G1 X164.401 Y95.006 E0.00550
G1 X164.429 Y94.657 E0.01102
G1 X161.781 Y92.009 E0.11775
G1 X162.315 Y92.008 E0.01679
G1 X164.498 Y94.191 E0.09709
G1 X164.607 Y93.765 E0.01383
G1 X162.849 Y92.007 E0.07819
G1 X163.383 Y92.006 E0.01679
G1 X164.764 Y93.387 E0.06141
G1 X164.952 Y93.041 E0.01240
G1 X163.917 Y92.005 E0.04604
G1 X164.451 Y92.004 E0.01679
G1 X165.155 Y92.708 E0.03130
G1 X165.401 Y92.420 E0.01193
G1 X164.985 Y92.003 E0.01851
G1 X165.519 Y92.002 E0.01679
G1 X165.787 Y92.271 E0.01193
G1 F8160
G1 X165.519 Y92.002 E-0.09270
G1 X164.985 Y92.003 E-0.13054
G1 X165.401 Y92.420 E-0.14391
G1 X165.155 Y92.708 E-0.09276
G1 X164.451 Y92.004 E-0.24332
G1 X164.219 Y92.005 E-0.05677
G1 E-0.04000 F2100.00000
G1 Z0.800 F10200.000
G1 X167.035 Y91.681
G1 Z0.200
G1 E0.80000 F2100.00000
G1 F1800
G1 X167.551 Y91.608 E0.00858
G1 X168.227 Y91.568 E0.00409
G1 X168.816 Y91.588 E0.00540
G1 X168.995 Y91.609 E0.00228
G1 X169.174 Y91.631 E0.00290
G1 X169.371 Y91.655 E0.00400
G1 X169.528 Y91.686 E0.00338
G1 F8160
G1 X169.371 Y91.655 E-0.03907
G1 E-0.76093 F2100.00000
G1 Z0.800 F10200.000
G1 X174.300 Y92.610
G1 Z0.200
G1 E0.80000 F2100.00000
G1 F1800
G1 X173.704 Y92.014 E0.02649
G1 X173.168 Y92.013 E0.01684
G1 X174.130 Y92.975 E0.04277
G1 X174.130 Y93.510 E0.01681
G1 X172.632 Y92.012 E0.06658
G1 X172.097 Y92.011 E0.01684
G1 X174.130 Y94.045 E0.09040
G1 X174.130 Y94.579 E0.01681
G1 X171.561 Y92.010 E0.11422
G1 X171.025 Y92.009 E0.01684
G1 X174.130 Y95.114 E0.13804
G1 X174.130 Y95.648 E0.01681
G1 X171.711 Y93.229 E0.10754
G1 X171.956 Y93.797 E0.01944
